X: 8194
T: Coolfin
R: slide
M: 12/8
K: Dmixolydian
A2D EFG ABc B2G|A2D EFG A2B G2E|A2D EFG ABc B2G|Adc A2d cAB GBG:|
A2d d2e cdB cGB|A2d d2e gec dGB|A2d d2e cdB cGB|ABc BdG AcB GEG|
A2d d2g edc BAG|A2d d2g ede a2g|e2a ged cag eAB|cdA Bcd cBA GBG||
A2d DEG AGE c2d|DEG AGE c2A B2G|A2d DEG AGE c2d|Acd edB c2A B2G|
A2d DEG AGE c2d|Acd edc ged edc|age dge dce dcA|dBc ABG AGE cGE||

